X: 1
T: String Quartet in B Minor opus 33 no 1 mvt 2
C: Franz Joseph Haydn
%%abc-version 2.0
%%abcx-abcm2ps-target-version 5.9.1 (29 Sep 2008)
%%abc-creator hum2abc beta
%%abcx-conversion-date 2021/02/14 14:38:18
%%abc-copyright Copyright (c) 1994, 2000 Center for Computer Assisted Research in the Humanities
%%abc-edited-by Frances Bennion
%%abcx-initial-encoding-date 1997/04/15
%%gracespace 0 6 6
%%humdrum-veritas 1912884377
%%humdrum-veritas-data 2383763862
%%linebreak <none>
%%barnumbers 0
L: 1/4
M: 3/4
N: Derived from op33n1-02.krn
Q: "Scherzo: Allegro"
%%staves [1 2 3 4]
V: 1
V: 2
V: 3 clef=alto
V: 4 clef=bass
K: D
[V:1]z2 B, [I:setbarnb1] |
[V:2]z2 z |
[V:3]z2 z |
[V:4]z2 z |
[V:1]D F B |
[V:2]z2 F |
[V:3]F, z D |
[V:4]B,, z D |
[V:1]^A c F |
[V:2]E z ^A, |
[V:3]C z C |
[V:4]C z E, |
[V:1]B d f |
[V:2]B, z B |
[V:3]D z2 |
[V:4]D, z2 |
[V:1]f2 f |
[V:2]^A c E |
[V:3]z3 |
[V:4]z3 |
[V:1]f f f |
[V:2]D F B, |
[V:3]z2 D |
[V:4]z2 B, |
[V:1]f2 f/f/ |
[V:2]F2 F |
[V:3]C E ^A, |
[V:4]^A, C E, |
[V:1]f/f/ f/f/ f/f/ |
[V:2]F F F |
[V:3]B, D B, |
[V:4]D, F, B,, |
[V:1]f2 g |
[V:2]F2 G |
[V:3]F,2 G, |
[V:4]F,,2 G,, |
[V:1]g g g |
[V:2]G G G |
[V:3]G, G, G, |
[V:4]G,, G,, G,, |
[V:1][b2B2] g |
[V:2][B3E3] |
[V:3]E,3 |
[V:4]G,,3 |
[V:1]e c A |
[V:2][c3E3] |
[V:3]G, G, G, |
[V:4]A,, A,, A,, |
[V:1]d z2 |
[V:2][dD] z2 |
[V:3]F, z2 |
[V:4]D,, z D |
[V:1]z2 c |
[V:2]z3 |
[V:3]z3 |
[V:4]C E G, |
[V:1]d a =c |
[V:2]z2 G |
[V:3]z3 |
[V:4]F, z E |
[V:1]B z ^d |
[V:2]F A F |
[V:3]z3 |
[V:4]^D F A, |
[V:1]e b d |
[V:2]E z A |
[V:3]z2 F |
[V:4]^G, z2 |
[V:1]c z ^e |
[V:2]^G B G |
[V:3]^E ^G B, |
[V:4]z3 |
[V:1]f c' e |
[V:2]F z C |
[V:3]^A,3 |
[V:4]F,3- |
[V:1]d f ^A |
[V:2]D2 C |
[V:3]B,2 C |
[V:4]F,3- |
[V:1]B d ^E |
[V:2]B,3 |
[V:3]D3 |
[V:4]F,3- |
[V:1]F z2 |
[V:2]^A, z2 |
[V:3]C z2 |
[V:4]F, z2 |
[V:1]G z B, |
[V:2]^A, z2 |
[V:3]C z2 |
[V:4]E, z2 |
[V:1]D F B |
[V:2]B, z F |
[V:3]B, z D |
[V:4]D, z D |
[V:1]^A c F |
[V:2]E z ^A, |
[V:3]C z C |
[V:4]C z E, |
[V:1]B d f |
[V:2]B, z B |
[V:3]D z2 |
[V:4]D, z2 |
[V:1]f2 f |
[V:2]^A c E |
[V:3]z3 |
[V:4]z3 |
[V:1]f f f |
[V:2]D F B, |
[V:3]z2 D |
[V:4]z2 B, |
[V:1]f2 f/f/ |
[V:2]F2 F |
[V:3]C E ^A, |
[V:4]^A, C E, |
[V:1]f/f/ f/f/ f/f/ |
[V:2]F F F |
[V:3]B, D B, |
[V:4]D, F, B,, |
[V:1]f2 ^e |
[V:2]F2 ^E |
[V:3]F,2 ^E, |
[V:4]F,,2 ^E,, |
[V:1]^e e e |
[V:2]^E E E |
[V:3]^E, E, E, |
[V:4]^E,, E,, E,, |
[V:1]e2 g |
[V:2]E2 ^A |
[V:3]E,2 C |
[V:4]E,,2 E, |
[V:1]g g g |
[V:2]^A A A |
[V:3]C C C |
[V:4]E, E, E, |
[V:1]f b d |
[V:2]B z B, |
[V:3]D z B, |
[V:4]D, z G, |
[V:1]c e ^A |
[V:2]G E C |
[V:3]C2 E |
[V:4]E,2 F, |
[V:1]B z2 |
[V:2]B, z2 |
[V:3]D z ^D |
[V:4]B,, z B, |
[V:1]z3 |
[V:2]z3 |
[V:3]E F ^G |
[V:4]C ^D E |
[V:1]z2 B |
[V:2]z2 B |
[V:3]F z2 |
[V:4]^D z2 |
[V:1]c ^d e |
[V:2]^A B c |
[V:3]z3 |
[V:4]F, z2 |
[V:1]^d z2 |
[V:2]B z2 |
[V:3]z2 ^D |
[V:4]B,, z B, |
[V:1]z3 |
[V:2]z3 |
[V:3]E F ^G |
[V:4]C ^D E |
[V:1]z2 ^d |
[V:2]z2 B |
[V:3]F z2 |
[V:4]^D z2 |
[V:1]e f ^g |
[V:2]c ^d e |
[V:3]z2 E |
[V:4]z3 |
[V:1]f2 e |
[V:2]^d2 c |
[V:3]F ^G ^A |
[V:4]z2 F, |
[V:1]^d3 |
[V:2]B3- |
[V:3]B z2 |
[V:4]^G, ^A, B, |
[V:1]^e f ^g |
[V:2]B3 |
[V:3]z2 C |
[V:4]C ^D ^E |
[V:1]f3 |
[V:2]^A B c |
[V:3]F ^G ^A |
[V:4]F z2 |
[V:1]^g ^a b |
[V:2]^e f ^g |
[V:3]^G F ^E |
[V:4]C3 |
[V:1]^a f f |
[V:2]f ^A A |
[V:3]F ^A c |
[V:4]F, ^A, C |
[V:1]f z f |
[V:2]^A z ^d |
[V:3]F z2 |
[V:4]F, z2 |
[V:1]e ^d c |
[V:2]c B ^A |
[V:3]z2 E |
[V:4]z3 |
[V:1]B z ^g |
[V:2]B z e |
[V:3]^D C B, |
[V:4]z3 |
[V:1]f e ^d |
[V:2]^d c B |
[V:3]z3 |
[V:4]z2 ^E, |
[V:1]c z2 |
[V:2]^A z C |
[V:3]z2 ^A, |
[V:4]F, ^G, ^A, |
[V:1]z2 F |
[V:2]^D E F |
[V:3]B, C ^D |
[V:4]B, z ^D |
[V:1]^G ^A B |
[V:2]^G z B |
[V:3]E z ^G |
[V:4]E F ^G |
[V:1]c z e |
[V:2]c ^d e |
[V:3]^A B c |
[V:4]F ^E =E |
[V:1]f ^g ^a |
[V:2]f z2 |
[V:3]^d e E |
[V:4]^D C F |
[V:1]b c' ^d' |
[V:2]z3 |
[V:3]^D E F |
[V:4]B, ^A, =A, |
[V:1]e' f' ^g' |
[V:2]z2 ^A |
[V:3]^G z C |
[V:4]^G, F, E, |
[V:1]f' b ^a |
[V:2]B ^d c |
[V:3]^D F E |
[V:4]F,3 |
[V:1]b z2 |]
[V:2]B z2 |]
[V:3]^D z2 |]
[V:4]B,, z2 |]

